icons/nodes_text.svg

<?xml version="1.0" encoding="UTF-8" standalone="no"?>
<svg
   width="32"
   height="32"
   viewBox="0 0 32 32"
   version="1.1"
   xml:space="preserve"
   style="clip-rule:evenodd;fill-rule:evenodd;stroke-linejoin:round;stroke-miterlimit:2"
   id="svg3568"
   sodipodi:docname="nodes_text.svg"
   inkscape:version="1.1.2 (b8e25be833, 2022-02-05)"
   xmlns:inkscape="http://www.inkscape.org/namespaces/inkscape"
   xmlns:sodipodi="http://sodipodi.sourceforge.net/DTD/sodipodi-0.dtd"
   xmlns="http://www.w3.org/2000/svg"
   xmlns:svg="http://www.w3.org/2000/svg"
   xmlns:serif="http://www.serif.com/"><sodipodi:namedview
   id="namedview3570"
   pagecolor="#ffffff"
   bordercolor="#666666"
   borderopacity="1.0"
   inkscape:pageshadow="2"
   inkscape:pageopacity="0.0"
   inkscape:pagecheckerboard="0"
   showgrid="false"
   inkscape:zoom="3.0262172"
   inkscape:cx="133.33478"
   inkscape:cy="107.22958"
   inkscape:window-width="1920"
   inkscape:window-height="1001"
   inkscape:window-x="-9"
   inkscape:window-y="-9"
   inkscape:window-maximized="1"
   inkscape:current-layer="svg3568" />
    <g
   transform="matrix(0.55172559,0,0,0.55172559,-0.55103116,-1.1036709)"
   id="g3559">
        <g
   transform="matrix(0.16492,0,0,0.16492,-643.717,-232.014)"
   id="g3557">
            <g
   id="layer1">
                <g
   id="g3491">
                    <g
   id="text2714"
   transform="matrix(6.06353,0,0,6.06353,3903.2,1406.83)">
                        <path
   d="M 41,41 H 23 l -5.521,6.72 C 16.899,48.579 17.086,48.506 17,49 c 0,1 0.647,1.635 2,2 v 2 H 3 V 51 C 3.902,50.828 5.463,50.429 6,50 6.537,49.571 7,49 8,48 L 31,15 c 0.73,-1.074 0.871,-1.356 1,-2 0.215,-0.988 0.16,-1.57 -1,-2 V 9 h 16 v 2 c -2,0 -2.828,0.098 -3,1 -0.129,0.623 -0.108,1.04 0.15,1.834 l 9.953,33.886 c 0.43,1.439 0.467,1.743 0.897,2.28 0.429,0.515 1.141,0.828 2,1 v 2 H 41 v -2 c 1.482,-0.236 1.785,-0.905 2,-2 0.086,-0.451 0.258,-1.12 0,-2 z M 40.834,35.083 37,19 25,35 Z"
   style="fill:url(#_Radial1);fill-rule:nonzero"
   id="path3539" />
                    </g>
                    <g
   transform="matrix(6.06353,0,0,6.06353,3903.2,1406.83)"
   id="g3544">
                        <path
   d="M 41,41 H 23 l -5.521,6.72 C 16.899,48.579 17.086,48.506 17,49 c 0,1 0.647,1.635 2,2 v 2 H 3 V 51 C 3.902,50.828 5.463,50.429 6,50 6.537,49.571 7,49 8,48 L 31,15 c 0.73,-1.074 0.871,-1.356 1,-2 0.215,-0.988 0.16,-1.57 -1,-2 V 9 h 16 v 2 c -2,0 -2.828,0.098 -3,1 -0.129,0.623 -0.108,1.04 0.15,1.834 l 9.953,33.886 c 0.43,1.439 0.467,1.743 0.897,2.28 0.429,0.515 1.141,0.828 2,1 v 2 H 41 v -2 c 1.482,-0.236 1.785,-0.905 2,-2 0.086,-0.451 0.258,-1.12 0,-2 z M 7.867,51 h 7.64 C 15.157,50.419 15,49.747 15,49 c 0,-0.115 0.01,-0.229 0.03,-0.343 0.138,-0.796 -0.143,-0.671 0.792,-2.056 0.035,-0.052 0.072,-0.102 0.112,-0.15 L 21.455,39.73 C 21.835,39.268 22.402,39 23,39 h 18 c 0.861,0 1.625,0.551 1.897,1.368 l 2,6 c 0.008,0.023 0.016,0.047 0.023,0.07 0.378,1.293 0.171,2.274 0.045,2.936 -0.001,0.004 -0.002,0.007 -0.002,0.011 -0.123,0.627 -0.295,1.16 -0.542,1.615 h 8.827 C 52.837,50.431 52.68,49.944 52.187,48.292 l -0.003,-0.008 c 0,0 -9.946,-33.862 -9.944,-33.855 -0.392,-1.216 -0.398,-1.864 -0.205,-2.803 0.043,-0.225 0.099,-0.433 0.17,-0.626 h -8.352 c 0.004,0.011 0.009,0.023 0.014,0.034 0.259,0.635 0.299,1.405 0.091,2.373 -0.173,0.863 -0.321,1.272 -1.304,2.718 -0.004,0.006 -0.009,0.012 -0.013,0.019 l -23,33 C 9.573,49.24 9.498,49.331 9.414,49.414 8.719,50.11 8.26,50.609 7.867,51 Z"
   style="fill:#729fcf"
   id="path3542" />
                    </g>
                    <g
   id="text27141"
   serif:id="text2714"
   transform="matrix(6.06353,0,0,6.06353,3903.2,1406.83)">
                        <path
   d="M 40.824,37.083 24.99,37 C 24.234,36.996 23.545,36.567 23.209,35.89 22.873,35.213 22.947,34.405 23.4,33.8 l 12,-16 c 0.465,-0.62 1.247,-0.916 2.007,-0.758 0.759,0.157 1.359,0.74 1.538,1.494 l 3.835,16.083 c 0.142,0.597 0.002,1.227 -0.379,1.707 -0.382,0.481 -0.963,0.76 -1.577,0.757 z m 0.01,-2 L 37,19 25,35 Z"
   style="fill:#729fcf"
   id="path3546" />
                    </g>
                    <g
   id="text2714-7"
   transform="matrix(6.06353,0,0,6.06353,3903.2,1406.83)">
                        <path
   d="m 4.796,48.402 c 0.453,-0.374 0.855,-0.871 1.663,-1.688 0,0 22.895,-32.85 22.895,-32.85 0.414,-0.608 0.568,-0.801 0.655,-1.127 C 29.392,12.386 29,11.726 29,11 V 9 c 0,-1.105 0.895,-2 2,-2 h 16 c 1.105,0 2,0.895 2,2 v 2 c 0,1.105 -0.895,2 -2,2 -0.337,0 -0.703,0.017 -1.003,0.036 0.016,0.056 0.034,0.115 0.055,0.181 0.006,0.018 0.012,0.036 0.017,0.053 0,0 9.953,33.885 9.953,33.885 0.289,0.97 0.245,1.217 0.533,1.585 0.179,0.193 0.498,0.231 0.837,0.299 C 58.327,49.226 59,50.047 59,51 v 2 c 0,1.105 -0.895,2 -2,2 H 41 c -1.105,0 -2,-0.895 -2,-2 v -2 c 0,-0.983 0.714,-1.82 1.685,-1.975 0.085,-0.014 0.189,-0.041 0.266,-0.062 0.027,-0.098 0.065,-0.24 0.084,-0.337 0.045,-0.235 0.177,-0.58 0.053,-1.036 L 39.558,43 H 23.945 c 0,0 -4.703,5.725 -4.853,5.909 0.123,0.055 0.288,0.122 0.429,0.16 C 20.394,49.305 21,50.096 21,51 v 2 c 0,1.105 -0.895,2 -2,2 H 3 C 1.895,55 1,54.105 1,53 v -2 c 0,-0.96 0.682,-1.785 1.626,-1.965 0.598,-0.114 2.042,-0.591 2.17,-0.633 z M 41,41 l 2,6 c 0.258,0.88 0.086,1.549 0,2 -0.215,1.095 -0.518,1.764 -2,2 v 2 H 57 V 51 C 56.141,50.828 55.429,50.515 55,50 54.57,49.463 54.533,49.159 54.103,47.72 L 44.15,13.834 C 43.892,13.04 43.871,12.623 44,12 c 0.172,-0.902 1,-1 3,-1 V 9 H 31 v 2 c 1.16,0.43 1.215,1.012 1,2 -0.129,0.644 -0.27,0.926 -1,2 L 8,48 c -1,1 -1.463,1.571 -2,2 -0.537,0.429 -2.098,0.828 -3,1 v 2 h 16 v -2 c -1.353,-0.365 -2,-1 -2,-2 0.086,-0.494 -0.101,-0.421 0.479,-1.28 L 23,41 Z"
   style="fill:#0b1521"
   id="path3549" />
                    </g>
                    <g
   id="text2714-71"
   serif:id="text2714-7"
   transform="matrix(6.06353,0,0,6.06353,3903.2,1406.83)">
                        <path
   d="M 41.078,35.07 25,35 37,19 Z m -2.574,-2.012 -2.414,-9.512 -7.103,9.471 z"
   style="fill:#0b1521"
   id="path3552" />
                    </g>
                </g>
            </g>
        </g>
    </g>
    <defs
   id="defs3566">
        <radialGradient
   id="_Radial1"
   cx="0"
   cy="0"
   r="1"
   gradientUnits="userSpaceOnUse"
   gradientTransform="matrix(112.907,96.5983,-228.819,177.567,4017.36,1535)"><stop
     offset="0"
     style="stop-color:rgb(114,159,207);stop-opacity:1"
     id="stop3561" /><stop
     offset="1"
     style="stop-color:rgb(32,74,135);stop-opacity:1"
     id="stop3563" /></radialGradient>
    </defs>
</svg>

<?xml version="1.0" encoding="UTF-8" standalone="no"?>
<!DOCTYPE svg PUBLIC "-//W3C//DTD SVG 1.1//EN" "http://www.w3.org/Graphics/SVG/1.1/DTD/svg11.dtd">
<svg width="100%" height="100%" viewBox="0 0 267 267" version="1.1" xmlns="http://www.w3.org/2000/svg" xmlns:xlink="http://www.w3.org/1999/xlink" xml:space="preserve" xmlns:serif="http://www.serif.com/" style="fill-rule:evenodd;clip-rule:evenodd;stroke-linejoin:round;stroke-miterlimit:2;">
    <g transform="matrix(4.16667,0,0,4.16667,0,0)">
        <g transform="matrix(0.16492,0,0,0.16492,-643.717,-232.014)">
            <g id="layer1">
                <g id="g3491">
                    <g id="text2714" transform="matrix(6.06353,0,0,6.06353,3903.2,1406.83)">
                        <path d="M41,41L23,41L17.479,47.72C16.899,48.579 17.086,48.506 17,49C17,50 17.647,50.635 19,51L19,53L3,53L3,51C3.902,50.828 5.463,50.429 6,50C6.537,49.571 7,49 8,48L31,15C31.73,13.926 31.871,13.644 32,13C32.215,12.012 32.16,11.43 31,11L31,9L47,9L47,11C45,11 44.172,11.098 44,12C43.871,12.623 43.892,13.04 44.15,13.834L54.103,47.72C54.533,49.159 54.57,49.463 55,50C55.429,50.515 56.141,50.828 57,51L57,53L41,53L41,51C42.482,50.764 42.785,50.095 43,49C43.086,48.549 43.258,47.88 43,47L41,41ZM40.834,35.083L37,19L25,35L40.834,35.083Z" style="fill:url(#_Radial1);fill-rule:nonzero;"/>
                    </g>
                    <g transform="matrix(6.06353,0,0,6.06353,3903.2,1406.83)">
                        <path d="M41,41L23,41L17.479,47.72C16.899,48.579 17.086,48.506 17,49C17,50 17.647,50.635 19,51L19,53L3,53L3,51C3.902,50.828 5.463,50.429 6,50C6.537,49.571 7,49 8,48L31,15C31.73,13.926 31.871,13.644 32,13C32.215,12.012 32.16,11.43 31,11L31,9L47,9L47,11C45,11 44.172,11.098 44,12C43.871,12.623 43.892,13.04 44.15,13.834L54.103,47.72C54.533,49.159 54.57,49.463 55,50C55.429,50.515 56.141,50.828 57,51L57,53L41,53L41,51C42.482,50.764 42.785,50.095 43,49C43.086,48.549 43.258,47.88 43,47L41,41ZM7.867,51L15.507,51C15.157,50.419 15,49.747 15,49C15,48.885 15.01,48.771 15.03,48.657C15.168,47.861 14.887,47.986 15.822,46.601C15.857,46.549 15.894,46.499 15.934,46.451L21.455,39.73C21.835,39.268 22.402,39 23,39L41,39C41.861,39 42.625,39.551 42.897,40.368L44.897,46.368C44.905,46.391 44.913,46.415 44.92,46.438C45.298,47.731 45.091,48.712 44.965,49.374C44.964,49.378 44.963,49.381 44.963,49.385C44.84,50.012 44.668,50.545 44.421,51L53.248,51C52.837,50.431 52.68,49.944 52.187,48.292L52.184,48.284C52.184,48.284 42.238,14.422 42.24,14.429C41.848,13.213 41.842,12.565 42.035,11.626C42.078,11.401 42.134,11.193 42.205,11L33.853,11C33.857,11.011 33.862,11.023 33.867,11.034C34.126,11.669 34.166,12.439 33.958,13.407C33.785,14.27 33.637,14.679 32.654,16.125C32.65,16.131 32.645,16.137 32.641,16.144L9.641,49.144C9.573,49.24 9.498,49.331 9.414,49.414C8.719,50.11 8.26,50.609 7.867,51Z" style="fill:rgb(114,159,207);"/>
                    </g>
                    <g id="text27141" serif:id="text2714" transform="matrix(6.06353,0,0,6.06353,3903.2,1406.83)">
                        <path d="M40.824,37.083L24.99,37C24.234,36.996 23.545,36.567 23.209,35.89C22.873,35.213 22.947,34.405 23.4,33.8L35.4,17.8C35.865,17.18 36.647,16.884 37.407,17.042C38.166,17.199 38.766,17.782 38.945,18.536L42.78,34.619C42.922,35.216 42.782,35.846 42.401,36.326C42.019,36.807 41.438,37.086 40.824,37.083ZM40.834,35.083L37,19L25,35L40.834,35.083Z" style="fill:rgb(114,159,207);"/>
                    </g>
                    <g id="text2714-7" transform="matrix(6.06353,0,0,6.06353,3903.2,1406.83)">
                        <path d="M4.796,48.402C5.249,48.028 5.651,47.531 6.459,46.714C6.459,46.714 29.354,13.864 29.354,13.864C29.768,13.256 29.922,13.063 30.009,12.737C29.392,12.386 29,11.726 29,11L29,9C29,7.895 29.895,7 31,7L47,7C48.105,7 49,7.895 49,9L49,11C49,12.105 48.105,13 47,13C46.663,13 46.297,13.017 45.997,13.036C46.013,13.092 46.031,13.151 46.052,13.217C46.058,13.235 46.064,13.253 46.069,13.27C46.069,13.27 56.022,47.155 56.022,47.155C56.311,48.125 56.267,48.372 56.555,48.74C56.734,48.933 57.053,48.971 57.392,49.039C58.327,49.226 59,50.047 59,51L59,53C59,54.105 58.105,55 57,55L41,55C39.895,55 39,54.105 39,53L39,51C39,50.017 39.714,49.18 40.685,49.025C40.77,49.011 40.874,48.984 40.951,48.963C40.978,48.865 41.016,48.723 41.035,48.626C41.08,48.391 41.212,48.046 41.088,47.59L39.558,43L23.945,43C23.945,43 19.242,48.725 19.092,48.909C19.215,48.964 19.38,49.031 19.521,49.069C20.394,49.305 21,50.096 21,51L21,53C21,54.105 20.105,55 19,55L3,55C1.895,55 1,54.105 1,53L1,51C1,50.04 1.682,49.215 2.626,49.035C3.224,48.921 4.668,48.444 4.796,48.402ZM41,41L43,47C43.258,47.88 43.086,48.549 43,49C42.785,50.095 42.482,50.764 41,51L41,53L57,53L57,51C56.141,50.828 55.429,50.515 55,50C54.57,49.463 54.533,49.159 54.103,47.72L44.15,13.834C43.892,13.04 43.871,12.623 44,12C44.172,11.098 45,11 47,11L47,9L31,9L31,11C32.16,11.43 32.215,12.012 32,13C31.871,13.644 31.73,13.926 31,15L8,48C7,49 6.537,49.571 6,50C5.463,50.429 3.902,50.828 3,51L3,53L19,53L19,51C17.647,50.635 17,50 17,49C17.086,48.506 16.899,48.579 17.479,47.72L23,41L41,41Z" style="fill:rgb(11,21,33);"/>
                    </g>
                    <g id="text2714-71" serif:id="text2714-7" transform="matrix(6.06353,0,0,6.06353,3903.2,1406.83)">
                        <path d="M41.078,35.07L25,35L37,19L41.078,35.07ZM38.504,33.058L36.09,23.546L28.987,33.017L38.504,33.058Z" style="fill:rgb(11,21,33);"/>
                    </g>
                </g>
            </g>
        </g>
    </g>
    <defs>
        <radialGradient id="_Radial1" cx="0" cy="0" r="1" gradientUnits="userSpaceOnUse" gradientTransform="matrix(112.907,96.5983,-228.819,177.567,4017.36,1535)"><stop offset="0" style="stop-color:rgb(114,159,207);stop-opacity:1"/><stop offset="1" style="stop-color:rgb(32,74,135);stop-opacity:1"/></radialGradient>
    </defs>
</svg>
